public/assets/img/logo/fixstern-logo.svg

<?xml version="1.0" encoding="UTF-8" standalone="no"?><!DOCTYPE svg PUBLIC "-//W3C//DTD SVG 1.1//EN" "http://www.w3.org/Graphics/SVG/1.1/DTD/svg11.dtd"><svg width="100%" height="100%" viewBox="0 0 1281 439" version="1.1" xmlns="http://www.w3.org/2000/svg" xmlns:xlink="http://www.w3.org/1999/xlink" xml:space="preserve" xmlns:serif="http://www.serif.com/" style="fill-rule:evenodd;clip-rule:evenodd;stroke-linejoin:round;stroke-miterlimit:2;"><path d="M157.41,434.745l29.677,-141.141l-24.501,-0l4.831,-22.431l24.502,-0l4.141,-18.98c3.45,-16.334 11.503,-29.678 24.156,-40.03c12.653,-10.353 28.987,-15.529 49.002,-15.529c15.414,-0 27.378,1.725 35.89,5.176l-4.486,21.395c-3.221,-1.15 -7.477,-2.07 -12.769,-2.76c-5.291,-0.69 -10.697,-1.036 -16.219,-1.036c-14.264,0 -25.076,2.704 -32.438,8.11c-7.362,5.406 -12.308,13.631 -14.839,24.674l-4.141,18.98l90.068,-0l-34.509,163.572l-28.297,0l29.678,-141.141l-61.771,-0l-29.678,141.141l-28.297,0Z" style="fill-rule:nonzero;"/><path d="M301.657,434.745l79.715,-83.166l-43.136,-80.406l30.713,-0l31.748,61.081l57.63,-61.081l30.368,-0l-76.265,80.406l44.172,83.166l-30.713,0l-33.474,-63.841l-60.045,63.841l-30.713,0Z" style="fill-rule:nonzero;"/><path d="M529.416,438.196c-9.663,-0 -19.268,-0.748 -28.815,-2.243c-9.548,-1.496 -17.427,-3.278 -23.639,-5.349l5.176,-24.846c15.184,5.521 31.404,8.282 48.658,8.282c14.494,-0 25.192,-1.553 32.093,-4.659c6.902,-3.106 11.273,-8.915 13.114,-17.427c1.38,-6.212 0.69,-10.928 -2.071,-14.149c-2.761,-3.22 -7.247,-6.096 -13.458,-8.627c-6.212,-2.531 -14.264,-5.521 -24.157,-8.972c-8.742,-3.221 -16.391,-6.729 -22.948,-10.525c-6.557,-3.796 -11.273,-8.57 -14.149,-14.322c-2.875,-5.751 -3.278,-13.343 -1.207,-22.775c3.22,-14.494 10.18,-25.595 20.877,-33.302c10.698,-7.707 28.24,-11.56 52.627,-11.56c8.742,-0 17.024,0.633 24.846,1.898c7.822,1.265 14.494,2.818 20.015,4.659l-5.176,24.846c-13.344,-4.831 -26.802,-7.247 -40.376,-7.247c-13.573,0 -23.926,1.438 -31.058,4.314c-7.132,2.876 -11.618,8.224 -13.458,16.046c-1.15,5.292 -0.633,9.49 1.553,12.596c2.185,3.106 6.096,5.752 11.733,7.937c5.636,2.186 12.941,4.889 21.913,8.11c17.715,5.751 30.023,12.135 36.924,19.152c6.902,7.017 8.858,17.542 5.867,31.576c-3.451,16.104 -10.813,27.895 -22.086,35.372c-11.273,7.476 -28.872,11.215 -52.798,11.215Z" style="fill-rule:nonzero;"/><path d="M690.227,438.196c-15.184,-0 -26.112,-4.314 -32.783,-12.941c-6.672,-8.627 -8.397,-20.648 -5.177,-36.062l20.016,-95.589l-24.847,-0l4.831,-22.431l24.847,-0l8.627,-40.376l30.023,-8.627l-10.353,49.003l45.207,-0l-6.557,22.431l-43.481,-0l-20.015,94.209c-2.071,9.892 -1.553,16.967 1.553,21.223c3.105,4.256 9.72,6.384 19.842,6.384c3.221,0 6.902,-0.288 11.043,-0.863c4.141,-0.575 8.282,-1.438 12.423,-2.588l-4.831,21.396c-9.202,3.221 -19.325,4.831 -30.368,4.831Z" style="fill-rule:nonzero;"/><path d="M833.094,438.196c-28.297,-0 -48.427,-7.017 -60.391,-21.05c-11.963,-14.034 -14.838,-35.66 -8.627,-64.877c5.752,-26.227 16.277,-46.875 31.576,-61.944c15.299,-15.069 36.867,-22.603 64.704,-22.603c16.104,-0 28.815,2.933 38.132,8.8c9.318,5.866 15.472,13.918 18.463,24.156c2.99,10.238 3.106,21.798 0.345,34.681l-6.557,30.713l-121.126,0c-1.611,12.424 -1.208,22.201 1.208,29.333c2.415,7.132 7.822,12.251 16.219,15.356c8.397,3.106 20.533,4.659 36.407,4.659c16.794,0 32.898,-2.876 48.312,-8.627l-4.831,22.086c-7.822,2.99 -16.334,5.291 -25.537,6.901c-9.202,1.611 -18.634,2.416 -28.297,2.416Zm-39.34,-92.484l95.935,0l3.105,-13.458c2.761,-13.344 1.726,-23.639 -3.105,-30.886c-4.832,-7.247 -15.989,-10.87 -33.474,-10.87c-18.635,-0 -32.726,4.601 -42.273,13.803c-9.548,9.203 -16.277,23.006 -20.188,41.411Z" style="fill-rule:nonzero;"/><path d="M938.001,434.745l34.509,-163.572l25.537,-0l-2.416,20.705c9.432,-5.291 20.015,-10.122 31.748,-14.494c11.733,-4.371 23.121,-7.592 34.164,-9.662l-4.486,22.086c-6.902,1.38 -14.379,3.278 -22.431,5.694c-8.052,2.415 -15.816,5.118 -23.293,8.109c-7.477,2.991 -13.861,6.097 -19.153,9.318l-25.882,121.816l-28.297,0Z" style="fill-rule:nonzero;"/><path d="M1057.75,434.745l34.509,-163.572l25.537,-0l-2.071,18.635c9.202,-6.442 19.44,-11.733 30.713,-15.874c11.273,-4.142 23.696,-6.212 37.27,-6.212c39.57,-0 55.099,20.015 46.587,60.045l-22.431,106.978l-28.297,0l22.43,-105.942c2.991,-14.264 2.358,-24.214 -1.898,-29.85c-4.256,-5.637 -14.551,-8.455 -30.885,-8.455c-9.433,-0 -19.383,1.84 -29.85,5.521c-10.468,3.681 -19.498,8.743 -27.09,15.184l-26.227,123.542l-28.297,0Z" style="fill-rule:nonzero;"/><path d="M72.024,121.635l-28.517,-98.507l60.832,48.52l86.805,-71.648l-25.785,99.513l70.156,48.797l-82.726,25.716l-8.921,117.509l-63.878,-102.915l-79.99,34.984l72.024,-101.969Z"/><g id="Ebene1"><path id="_---" serif:id="(®)" d="M1259.34,285.804c-2.875,-0 -5.563,-0.542 -8.063,-1.625c-2.5,-1.084 -4.698,-2.573 -6.594,-4.469c-1.896,-1.896 -3.385,-4.094 -4.468,-6.594c-1.084,-2.5 -1.625,-5.187 -1.625,-8.062c-0,-2.875 0.541,-5.563 1.625,-8.063c1.083,-2.5 2.572,-4.698 4.468,-6.594c1.896,-1.896 4.094,-3.385 6.594,-4.468c2.5,-1.084 5.188,-1.625 8.063,-1.625c2.875,-0 5.562,0.541 8.062,1.625c2.5,1.083 4.698,2.572 6.594,4.468c1.896,1.896 3.385,4.094 4.469,6.594c1.083,2.5 1.625,5.188 1.625,8.063c-0,2.875 -0.542,5.562 -1.625,8.062c-1.084,2.5 -2.573,4.698 -4.469,6.594c-1.896,1.896 -4.094,3.385 -6.594,4.469c-2.5,1.083 -5.187,1.625 -8.062,1.625Zm-0,-2.688c3.375,0 6.416,-0.792 9.125,-2.375c2.708,-1.583 4.864,-3.74 6.468,-6.469c1.604,-2.729 2.407,-5.802 2.407,-9.218c-0,-3.417 -0.803,-6.48 -2.407,-9.188c-1.604,-2.708 -3.76,-4.854 -6.468,-6.437c-2.709,-1.584 -5.75,-2.375 -9.125,-2.375c-3.375,-0 -6.428,0.791 -9.157,2.375c-2.729,1.583 -4.885,3.729 -6.468,6.437c-1.584,2.708 -2.375,5.771 -2.375,9.188c-0,3.416 0.791,6.489 2.375,9.218c1.583,2.729 3.739,4.886 6.468,6.469c2.729,1.583 5.782,2.375 9.157,2.375Zm-9.688,-4.187l0,-27.813l11.75,0c2.917,0 5.104,0.729 6.563,2.188c1.458,1.458 2.187,3.458 2.187,6c0,2.166 -0.552,3.927 -1.656,5.281c-1.104,1.354 -2.698,2.219 -4.781,2.594c0.666,0.333 1.166,0.739 1.5,1.218c0.333,0.479 0.666,1.094 1,1.844l3.687,8.688l-2.75,-0l-3.75,-8.563c-0.417,-1.042 -0.937,-1.719 -1.562,-2.031c-0.625,-0.313 -1.834,-0.469 -3.625,-0.469l-5.75,0l-0,11.063l-2.813,-0Zm2.813,-13.5l7.812,-0c2.25,-0 4,-0.417 5.25,-1.25c1.25,-0.834 1.875,-2.459 1.875,-4.875c0,-2.209 -0.5,-3.719 -1.5,-4.532c-1,-0.812 -2.562,-1.218 -4.687,-1.218l-8.75,-0l-0,11.875Z" style="fill-rule:nonzero;"/></g></svg>

<?xml version="1.0" encoding="UTF-8" standalone="no"?>
<!DOCTYPE svg PUBLIC "-//W3C//DTD SVG 1.1//EN" "http://www.w3.org/Graphics/SVG/1.1/DTD/svg11.dtd">
<svg width="100%" height="100%" viewBox="0 0 1708 586" version="1.1" xmlns="http://www.w3.org/2000/svg" xmlns:xlink="http://www.w3.org/1999/xlink" xml:space="preserve" xmlns:serif="http://www.serif.com/" style="fill-rule:evenodd;clip-rule:evenodd;stroke-linejoin:round;stroke-miterlimit:2;">
    <g transform="matrix(1.33333,0,0,1.33333,0,0)">
        <path d="M157.41,434.745L187.087,293.604L162.586,293.604L167.417,271.173L191.919,271.173L196.06,252.193C199.51,235.859 207.563,222.515 220.216,212.163C232.869,201.81 249.203,196.634 269.218,196.634C284.632,196.634 296.596,198.359 305.108,201.81L300.622,223.205C297.401,222.055 293.145,221.135 287.853,220.445C282.562,219.755 277.156,219.409 271.634,219.409C257.37,219.409 246.558,222.113 239.196,227.519C231.834,232.925 226.888,241.15 224.357,252.193L220.216,271.173L310.284,271.173L275.775,434.745L247.478,434.745L277.156,293.604L215.385,293.604L185.707,434.745L157.41,434.745Z" style="fill-rule:nonzero;"/>
        <path d="M301.657,434.745L381.372,351.579L338.236,271.173L368.949,271.173L400.697,332.254L458.327,271.173L488.695,271.173L412.43,351.579L456.602,434.745L425.889,434.745L392.415,370.904L332.37,434.745L301.657,434.745Z" style="fill-rule:nonzero;"/>
        <path d="M529.416,438.196C519.753,438.196 510.148,437.448 500.601,435.953C491.053,434.457 483.174,432.675 476.962,430.604L482.138,405.758C497.322,411.279 513.542,414.04 530.796,414.04C545.29,414.04 555.988,412.487 562.889,409.381C569.791,406.275 574.162,400.466 576.003,391.954C577.383,385.742 576.693,381.026 573.932,377.805C571.171,374.585 566.685,371.709 560.474,369.178C554.262,366.647 546.21,363.657 536.317,360.206C527.575,356.985 519.926,353.477 513.369,349.681C506.812,345.885 502.096,341.111 499.22,335.359C496.345,329.608 495.942,322.016 498.013,312.584C501.233,298.09 508.193,286.989 518.89,279.282C529.588,271.575 547.13,267.722 571.517,267.722C580.259,267.722 588.541,268.355 596.363,269.62C604.185,270.885 610.857,272.438 616.378,274.279L611.202,299.125C597.858,294.294 584.4,291.878 570.826,291.878C557.253,291.878 546.9,293.316 539.768,296.192C532.636,299.068 528.15,304.416 526.31,312.238C525.16,317.53 525.677,321.728 527.863,324.834C530.048,327.94 533.959,330.586 539.596,332.771C545.232,334.957 552.537,337.66 561.509,340.881C579.224,346.632 591.532,353.016 598.433,360.033C605.335,367.05 607.291,377.575 604.3,391.609C600.849,407.713 593.487,419.504 582.214,426.981C570.941,434.457 553.342,438.196 529.416,438.196Z" style="fill-rule:nonzero;"/>
        <path d="M690.227,438.196C675.043,438.196 664.115,433.882 657.444,425.255C650.772,416.628 649.047,404.607 652.267,389.193L672.283,293.604L647.436,293.604L652.267,271.173L677.114,271.173L685.741,230.797L715.764,222.17L705.411,271.173L750.618,271.173L744.061,293.604L700.58,293.604L680.565,387.813C678.494,397.705 679.012,404.78 682.118,409.036C685.223,413.292 691.838,415.42 701.96,415.42C705.181,415.42 708.862,415.132 713.003,414.557C717.144,413.982 721.285,413.119 725.426,411.969L720.595,433.365C711.393,436.586 701.27,438.196 690.227,438.196Z" style="fill-rule:nonzero;"/>
        <path d="M833.094,438.196C804.797,438.196 784.667,431.179 772.703,417.146C760.74,403.112 757.865,381.486 764.076,352.269C769.828,326.042 780.353,305.394 795.652,290.325C810.951,275.256 832.519,267.722 860.356,267.722C876.46,267.722 889.171,270.655 898.488,276.522C907.806,282.388 913.96,290.44 916.951,300.678C919.941,310.916 920.057,322.476 917.296,335.359L910.739,366.072L789.613,366.072C788.002,378.496 788.405,388.273 790.821,395.405C793.236,402.537 798.643,407.656 807.04,410.761C815.437,413.867 827.573,415.42 843.447,415.42C860.241,415.42 876.345,412.544 891.759,406.793L886.928,428.879C879.106,431.869 870.594,434.17 861.391,435.78C852.189,437.391 842.757,438.196 833.094,438.196ZM793.754,345.712L889.689,345.712L892.794,332.254C895.555,318.91 894.52,308.615 889.689,301.368C884.857,294.121 873.7,290.498 856.215,290.498C837.58,290.498 823.489,295.099 813.942,304.301C804.394,313.504 797.665,327.307 793.754,345.712Z" style="fill-rule:nonzero;"/>
        <path d="M938.001,434.745L972.51,271.173L998.047,271.173L995.631,291.878C1005.06,286.587 1015.65,281.756 1027.38,277.384C1039.11,273.013 1050.5,269.792 1061.54,267.722L1057.06,289.808C1050.15,291.188 1042.68,293.086 1034.63,295.502C1026.57,297.917 1018.81,300.62 1011.33,303.611C1003.86,306.602 997.472,309.708 992.18,312.929L966.298,434.745L938.001,434.745Z" style="fill-rule:nonzero;"/>
        <path d="M1057.75,434.745L1092.26,271.173L1117.8,271.173L1115.73,289.808C1124.93,283.366 1135.16,278.075 1146.44,273.934C1157.71,269.792 1170.13,267.722 1183.71,267.722C1223.28,267.722 1238.81,287.737 1230.3,327.767L1207.86,434.745L1179.57,434.745L1202,328.803C1204.99,314.539 1204.36,304.589 1200.1,298.953C1195.84,293.316 1185.55,290.498 1169.21,290.498C1159.78,290.498 1149.83,292.338 1139.36,296.019C1128.9,299.7 1119.87,304.762 1112.27,311.203L1086.05,434.745L1057.75,434.745Z" style="fill-rule:nonzero;"/>
        <path d="M72.024,121.635L43.507,23.128L104.339,71.648L191.144,0L165.359,99.513L235.515,148.31L152.789,174.026L143.868,291.535L79.99,188.62L0,223.604L72.024,121.635Z"/>
        <g id="Ebene1">
        </g>
    </g>
</svg>
